X: 1
T: Hawk, The
M: 4/4
L: 1/8
R: barndance
C: James Hill
K: Dmaj
F>G|A2 (3ABA F2A2|d2A2 f>ed>c|B2 (3BcB G2B2|e>fg>f e>dc>B|
A2 (3ABA F2A2|d2A2 f>ed>c|B2 (3BcB g2c2|e2d2 d2:|
|:g2|f>ga>b a>fg>b|a2A2 d2f2|e>fg2 g2c2|d>ef2 f2A2|
f>ga>b a>fg>b|a2c2 d2f2|e>fg2 g2c2|e2d2 d2:|
|:A2|A>af>d A>FD>F|A>af>d A4|A>GE2 E2G2|B>AF2 F2G2|
A>af>d A>FD>F|A>af>d A4|B>cd2 c>de>f|e2d2 d2:|
